cssgg/list.svg

<svg
  width="24"
  height="24"
  viewBox="0 0 24 24"
  fill="none"
  xmlns="http://www.w3.org/2000/svg"
>
  <path
    fill-rule="evenodd"
    clip-rule="evenodd"
    d="M20 4H4C3.44771 4 3 4.44772 3 5V19C3 19.5523 3.44772 20 4 20H20C20.5523 20 21 19.5523 21 19V5C21 4.44771 20.5523 4 20 4ZM4 2C2.34315 2 1 3.34315 1 5V19C1 20.6569 2.34315 22 4 22H20C21.6569 22 23 20.6569 23 19V5C23 3.34315 21.6569 2 20 2H4ZM6 7H8V9H6V7ZM11 7C10.4477 7 10 7.44772 10 8C10 8.55228 10.4477 9 11 9H17C17.5523 9 18 8.55228 18 8C18 7.44772 17.5523 7 17 7H11ZM8 11H6V13H8V11ZM10 12C10 11.4477 10.4477 11 11 11H17C17.5523 11 18 11.4477 18 12C18 12.5523 17.5523 13 17 13H11C10.4477 13 10 12.5523 10 12ZM8 15H6V17H8V15ZM10 16C10 15.4477 10.4477 15 11 15H17C17.5523 15 18 15.4477 18 16C18 16.5523 17.5523 17 17 17H11C10.4477 17 10 16.5523 10 16Z"
    fill="currentColor"
  />
</svg>

<svg viewBox="0 0 24 24" xmlns="http://www.w3.org/2000/svg"><path fill-rule="evenodd" d="M20 4H4c-.56 0-1 .44-1 1v14c0 .55.44 1 1 1h16c.55 0 1-.45 1-1V5c0-.56-.45-1-1-1ZM4 2C2.34 2 1 3.34 1 5v14c0 1.65 1.34 3 3 3h16c1.65 0 3-1.35 3-3V5c0-1.66-1.35-3-3-3H4Zm2 5h2v2H6V7Zm5 0c-.56 0-1 .44-1 1 0 .55.44 1 1 1h6c.55 0 1-.45 1-1 0-.56-.45-1-1-1h-6Zm-3 4H6v2h2v-2Zm2 1c0-.56.44-1 1-1h6c.55 0 1 .44 1 1 0 .55-.45 1-1 1h-6c-.56 0-1-.45-1-1Zm-2 3H6v2h2v-2Zm2 1c0-.56.44-1 1-1h6c.55 0 1 .44 1 1 0 .55-.45 1-1 1h-6c-.56 0-1-.45-1-1Z"/></svg>
